icons/folder-middleware.svg

<svg xmlns="http://www.w3.org/2000/svg" viewBox="0 0 32 32">
  <path d="M13.84376,7.53645l-1.28749-1.0729A2,2,0,0,0,11.27591,6H4A2,2,0,0,0,2,8V24a2,2,0,0,0,2,2H28a2,2,0,0,0,2-2V10a2,2,0,0,0-2-2H15.12412A2,2,0,0,1,13.84376,7.53645Z" style="fill: #5c6bc0"/>
  <path d="M30.10706,20H32V16a2,2,0,0,0-2-2H26V12a2,2,0,0,0-4,0v2H18a2,2,0,0,0-2,2v4H14a2,2,0,0,0,0,4h2v4a2,2,0,0,0,2,2h4V28.10681a2.07435,2.07435,0,0,1,1.66418-2.07947A2.00134,2.00134,0,0,1,26,28v2h4a2,2,0,0,0,2-2V24H30a2.00137,2.00137,0,0,1-1.9726-2.33594A2.07445,2.07445,0,0,1,30.10706,20Z" style="fill: #c5cae9;fill-rule: evenodd"/>
</svg>

<svg xmlns="http://www.w3.org/2000/svg" viewBox="0 0 32 32"><path fill="#5c6bc0" d="m13.844 7.536-1.288-1.072A2 2 0 0 0 11.276 6H4a2 2 0 0 0-2 2v16a2 2 0 0 0 2 2h24a2 2 0 0 0 2-2V10a2 2 0 0 0-2-2H15.124a2 2 0 0 1-1.28-.464Z"/><path fill="#c5cae9" fill-rule="evenodd" d="M30.107 20H32v-4a2 2 0 0 0-2-2h-4v-2a2 2 0 0 0-4 0v2h-4a2 2 0 0 0-2 2v4h-2a2 2 0 0 0 0 4h2v4a2 2 0 0 0 2 2h4v-1.893a2.074 2.074 0 0 1 1.664-2.08A2.001 2.001 0 0 1 26 28v2h4a2 2 0 0 0 2-2v-4h-2a2.001 2.001 0 0 1-1.973-2.336A2.074 2.074 0 0 1 30.107 20Z"/></svg>
